X: 160
T:Kiss My Lady. JC.159
M:2/4
L:1/8
Q:180
S:John Clare,Poet,Helpstone (1793-1864)
R:Country-dance
O:England
A:Northamptonshire
N:A kissing dance with kissing in the first bar would give every
N:incentive for the tune to linger a little, as here. CGP.
N:No TS in MS.
Z:vmp.P. Headford
K:Bb
F2|(B3cB2d2)|c>dce|df f/e/d/c/|B/c/d/c/ B/A/G/F/|!
BcBd|c>dce|df "qu"f/e/d/c/|BBB2:|!
|:zfdf|zgeg|zece|zfdf|zbfd|zgec|zdfc|"qu's"B2B2:|:!
F2DE|FFFF|e2zc|d2zB|A4B4|gfed|AAA2:|:!
e4|d4|eeec|dddB|ggge|fbgf|dBdA|BBB2|]
